forward-electronic/img/email.svg

<svg width="25" height="18" viewBox="0 0 25 18" fill="none" xmlns="http://www.w3.org/2000/svg">
  <path d="M21.9481 0H3.05711C1.37078 0 0 1.2969 0 2.89233V15.1077C0 16.7031 1.37078 18 3.05711 18H21.9429C23.6292 18 25 16.7031 25 15.1077V2.89723C25.0052 1.30179 23.6344 0 21.9481 0ZM23.6085 15.1077C23.6085 15.9739 22.8636 16.6786 21.9481 16.6786H3.05711C2.14153 16.6786 1.39665 15.9739 1.39665 15.1077V2.89723C1.39665 2.03099 2.14153 1.32626 3.05711 1.32626H21.9429C22.8585 1.32626 23.6033 2.03099 23.6033 2.89723V15.1077H23.6085Z" fill="#CBCBCB"/>
  <path d="M15.7666 8.84833L21.8808 3.66072C22.1653 3.41603 22.1911 3.00004 21.9325 2.72598C21.6739 2.45681 21.2342 2.43234 20.9445 2.67704L12.5129 9.83691L10.868 8.44702C10.8628 8.44213 10.8576 8.43723 10.8576 8.43234C10.8214 8.39808 10.7852 8.36872 10.7438 8.33935L4.05025 2.67214C3.76057 2.42744 3.32089 2.45192 3.06225 2.72598C2.80361 3.00004 2.82947 3.41603 3.11915 3.66072L9.30578 8.89237L3.14501 14.3491C2.86568 14.5987 2.85017 15.0147 3.11398 15.2839C3.25364 15.4209 3.43986 15.4943 3.62608 15.4943C3.79678 15.4943 3.96748 15.4356 4.10197 15.3181L10.3559 9.78307L12.0525 11.217C12.187 11.3296 12.3525 11.3834 12.5181 11.3834C12.6836 11.3834 12.8543 11.3247 12.9836 11.2121L14.7268 9.73413L20.9445 15.323C21.079 15.4454 21.2549 15.5041 21.4256 15.5041C21.6118 15.5041 21.7928 15.4356 21.9325 15.2986C22.1963 15.0343 22.186 14.6134 21.9066 14.3638L15.7666 8.84833Z" fill="#CBCBCB"/>
</svg>

<svg width="25" height="18" fill="none" xmlns="http://www.w3.org/2000/svg"><path d="M21.948 0H3.058C1.37 0 0 1.297 0 2.892v12.216C0 16.703 1.37 18 3.057 18h18.886C23.629 18 25 16.703 25 15.108V2.898C25.005 1.301 23.634 0 21.948 0zm1.66 15.108c0 .866-.744 1.57-1.66 1.57H3.058c-.916 0-1.661-.704-1.661-1.57V2.898c0-.867.745-1.572 1.66-1.572h18.886c.915 0 1.66.705 1.66 1.571v12.21h.005z" fill="#CBCBCB"/><path d="M15.767 8.848l6.114-5.187a.64.64 0 0 0 .052-.935.73.73 0 0 0-.988-.049l-8.432 7.16-1.645-1.39c-.005-.005-.01-.01-.01-.015a1.019 1.019 0 0 0-.114-.093L4.05 2.672a.725.725 0 0 0-.988.054.635.635 0 0 0 .057.935l6.187 5.231-6.161 5.457a.638.638 0 0 0-.031.935.735.735 0 0 0 .988.034l6.254-5.535 1.697 1.434a.721.721 0 0 0 .93-.005l1.744-1.478 6.218 5.589c.134.122.31.181.48.181a.717.717 0 0 0 .508-.205.638.638 0 0 0-.026-.935l-6.14-5.516z" fill="#CBCBCB"/></svg>
